X: 17565
T: Hjogravylta
R: reel
M: 4/4
K: Dmajor
d2AG FGE2|:DEFG ABAF|ABAF GFE2|
DEFG ABAF|1 d2AG FGE2:|2 d2AG FGA2||
d2de fdf2|ece2 ecef|g2fe defe|defg abag|
fgae d3e|fdf2 ece2|ecef g2fg|afge fdec||d2AG FGA2||

